lib/svgs/camera.svg

<svg xmlns="http://www.w3.org/2000/svg" viewBox="0 0 20 20">
    <path fill="#000" fill-rule="evenodd" d="M11.891,3 L8.108,3 C7.442,3 6.845,3.414 6.61,4.038 L6.291,4.889 L3.6,4.889 C2.72,4.889 2,5.609 2,6.489 L2,15.289 C2,16.169 2.72,16.889 3.6,16.889 L16.4,16.889 C17.28,16.889 18,16.169 18,15.289 L18,6.489 C18,5.609 17.28,4.889 16.4,4.889 L13.708,4.889 L13.389,4.038 C13.155,3.414 12.558,3 11.891,3 L11.891,3 Z M11.891,4.2 C12.057,4.2 12.207,4.304 12.266,4.46 L12.585,5.31 C12.76,5.779 13.208,6.089 13.708,6.089 L16.4,6.089 C16.617,6.089 16.8,6.272 16.8,6.489 L16.8,15.289 C16.8,15.506 16.617,15.689 16.4,15.689 L3.6,15.689 C3.383,15.689 3.2,15.506 3.2,15.289 L3.2,6.489 C3.2,6.272 3.383,6.089 3.6,6.089 L6.291,6.089 C6.792,6.089 7.239,5.779 7.415,5.31 L7.734,4.46 C7.792,4.304 7.943,4.2 8.108,4.2 L11.891,4.2 L11.891,4.2 Z M9.9997,7.456 C8.1037,7.456 6.5667,8.993 6.5667,10.889 C6.5667,12.785 8.1037,14.322 9.9997,14.322 C11.8957,14.322 13.4327,12.785 13.4327,10.889 C13.4327,8.993 11.8957,7.456 9.9997,7.456 L9.9997,7.456 Z M9.9997,8.656 C11.2307,8.656 12.2327,9.658 12.2327,10.889 C12.2327,12.12 11.2307,13.122 9.9997,13.122 C8.7687,13.122 7.7667,12.12 7.7667,10.889 C7.7667,9.658 8.7687,8.656 9.9997,8.656 L9.9997,8.656 Z M15.5995,7.9323 C15.5995,8.3743 15.2415,8.7323 14.7995,8.7323 C14.3575,8.7323 13.9995,8.3743 13.9995,7.9323 C13.9995,7.4903 14.3575,7.1323 14.7995,7.1323 C15.2415,7.1323 15.5995,7.4903 15.5995,7.9323 L15.5995,7.9323 Z"/>
</svg>

<svg xmlns="http://www.w3.org/2000/svg" viewBox="0 0 20 20">
    <path fill="#000" fill-rule="evenodd" d="M11.891 3H8.108c-.666 0-1.263.414-1.498 1.038l-.319.851H3.6c-.88 0-1.6.72-1.6 1.6v8.8c0 .88.72 1.6 1.6 1.6h12.8c.88 0 1.6-.72 1.6-1.6v-8.8c0-.88-.72-1.6-1.6-1.6h-2.692l-.319-.851A1.6 1.6 0 0 0 11.891 3m0 1.2c.166 0 .316.104.375.26l.319.85c.175.469.623.779 1.123.779H16.4c.217 0 .4.183.4.4v8.8c0 .217-.183.4-.4.4H3.6a.405.405 0 0 1-.4-.4v-8.8c0-.217.183-.4.4-.4h2.691a1.2 1.2 0 0 0 1.124-.779l.319-.85a.401.401 0 0 1 .374-.26h3.783M10 7.456a3.433 3.433 0 1 0 0 6.866 3.433 3.433 0 0 0 0-6.866m0 1.2a2.236 2.236 0 1 1-.006 4.472A2.236 2.236 0 0 1 10 8.656m5.6-.724a.8.8 0 1 1-1.6 0 .8.8 0 0 1 1.6 0"/>
</svg>
